X:24
T:Hanley Hornpipe. AJH.024
M:4/4
L:1/8
Q:1/2=90
S:A.J.Hughes MS
O:England
A:North Shropshire
Z:Neil Brookes
K:G
dc|BGBG AFAF|GFGA GABc|dBgf edcB|c2A2A2 dc|!
BGBG AFAF|GFGA GABc|dBgf ecAF|G2G2G2:|!
|:(3def|g2eg f2(3def|g2eg f2(3def|gfed cBAG|!
c2A2A2dc|BGBG AFAF|GFGA GABc|dBgf ecAF|G2G2G2:|

